X:25
T:The End of Winter
C:Brian Pickell
D:Fresh Canadian Fiddle Tunes:Brian Pickell
Z:Robin Beech robin.beech@mcgill.ca
M:6/8
L:1/8
R:jig
K:D
A3 ABc | dAG FED | E2E FDA, | G,3 D2C | B,2C DCB, |
A,DC D2E |1 F2G AFD | E3 EFG :|2 FAF FEC |
D3 DCD |: E3 ECA, | G2F ECA, | DEF AFA | dcd Ade |
fed afd | (3Bcd B AFG | EFG BGE | EDC DCD :|
